X: 94
T:Sheila Coyle's Reel
M:C|
L:1/8
S:With some of DeZarn's variations in the repeats
R:Reel
K:D
FA~A2 FADF|ADFA BAFD|GBBA ~B3G|ABdf edBA|!
FA~A2 FADF|ADFA BAFD|GB~B2 ADFD|EFGE FDD2||!
FA~A2 FADF|ADFA BAFD|dB~B2 AB~B2|ABdf edBA|!
FA~A2 FADF|Adcd BAFD|GB~B2 ADFD|EFGE FDD2|]!
dffe fgfe|dfed BAFB|Acec fcec|~B3A BAFA|!
dffe ~f3e|dcdA BAFD|GB~B2 ADFD|EFGE FDD2||!
dffe fgfe|dfed BAFB|Acec acec|~B3A BAFA|!
dffe ~f3e|dcdA BAFD|GB~B2 A2FD|EFGE FDD2|]!
